Yaru++/emotes/16/face-smile-grin.svg

<svg height="16" width="16" xmlns="http://www.w3.org/2000/svg"><g stroke-width="1.142857"><path d="m8 0a8 8 0 1 0 0 16 8 8 0 0 0 0-16zm-2.2857143 4.5714286c.6388572 0 1.1782857.5405714 1.1782857 1.1782857v1.1074286c0 .6377142-.5394285 1.1428571-1.1771428 1.1428571-.64 0-1.1428572-.5051429-1.1428572-1.1428571v-1.1074286c-.0011428-.6377143.5017143-1.1782857 1.1417143-1.1782857zm4.5714283 0c.638857 0 1.142857.5405714 1.142857 1.1782857v1.1074286c0 .6377142-.504 1.1428571-1.142857 1.1428571-.637714 0-1.142857-.5051429-1.142857-1.1428571v-1.1074286c0-.6377143.505143-1.1782857 1.142857-1.1782857zm-7.9999997 4.6514285c1.1394286.728 4.5908571 1.0479999 5.7142857 1.0479999 1.124571 0 4.348571.05829 5.714286-1.0479999v.5714286c0 .7771433-1.993143 1.6045713-5.714286 1.6045713-3.7211429 0-5.7142857-.996571-5.7142857-1.6045713z" fill="#fdc92b"/><path d="m8 0a8 8 0 0 0 -7.9866071 8.3482143 8 8 0 0 1 7.9866071-7.77678573 8 8 0 0 1 7.986607 7.65178573 8 8 0 0 0 -7.986607-8.2232143zm-3.4263393 6.8571429v.5714285c0 .6377143.5028571 1.1428572 1.1428571 1.1428572.6377143 0 1.1763393-.5051429 1.1763393-1.1428572v-.5714285c0 .6377142-.538625 1.1428571-1.1763393 1.1428571-.64 0-1.1428571-.5051429-1.1428571-1.1428571zm4.5691963 0v.5714285c0 .6377143.505143 1.1428572 1.142857 1.1428572.638857 0 1.142857-.5051429 1.142857-1.1428572v-.5714285c0 .6377142-.504 1.1428571-1.142857 1.1428571-.637714 0-1.142857-.5051429-1.142857-1.1428571zm-6.8571427 2.9375v.5714281c0 .608 1.9931428 1.604911 5.7142857 1.604911 3.721143 0 5.714286-.827768 5.714286-1.604911v-.5714281c0 .7771421-1.993143 1.6049101-5.714286 1.6049101-3.7211429 0-5.7142857-.996911-5.7142857-1.6049101z" fill="#fffffe" opacity=".3"/><path d="m5.7142857 4c-.64 0-1.1417679.5408571-1.140625 1.1785714v.5714286c-.00114-.6377143.500625-1.1785714 1.140625-1.1785714.6388572 0 1.1785714.5408571 1.1785714 1.1785714v-.5714286c0-.6377143-.5397142-1.1785714-1.1785714-1.1785714zm4.5714283 0c-.637714 0-1.142857.5408571-1.142857 1.1785714v.5714286c0-.6377143.505143-1.1785714 1.142857-1.1785714.638857 0 1.142857.5408571 1.142857 1.1785714v-.5714286c0-.6377143-.504-1.1785714-1.142857-1.1785714zm5.700893 3.6517857a8 8 0 0 1 -7.986607 7.7767853 8 8 0 0 1 -7.9866071-7.6517853 8 8 0 0 0 7.9866071 8.2232143 8 8 0 0 0 7.986607-8.3482143zm-13.7008927 1v.5714286c1.1394286.728 4.5908571 1.0468747 5.7142857 1.0468747 1.124571 0 4.348571.05941 5.714286-1.0468747v-.5714286c-1.365715 1.1062857-4.589715 1.046875-5.714286 1.046875-1.1234286 0-4.5748571-.318875-5.7142857-1.046875z" opacity=".2"/></g></svg>

<?xml version="1.0" encoding="UTF-8" standalone="no"?>
<svg
   xmlns:dc="http://purl.org/dc/elements/1.1/"
   xmlns:cc="http://creativecommons.org/ns#"
   xmlns:rdf="http://www.w3.org/1999/02/22-rdf-syntax-ns#"
   xmlns:svg="http://www.w3.org/2000/svg"
   xmlns="http://www.w3.org/2000/svg"
   xmlns:sodipodi="http://sodipodi.sourceforge.net/DTD/sodipodi-0.dtd"
   xmlns:inkscape="http://www.inkscape.org/namespaces/inkscape"
   width="16"
   height="16"
   version="1.1"
   id="svg4"
   sodipodi:docname="face-smile.svg"
   inkscape:version="0.92.4 (5da689c313, 2019-01-14)">
  <metadata
     id="metadata10">
    <rdf:RDF>
      <cc:Work
         rdf:about="">
        <dc:format>image/svg+xml</dc:format>
        <dc:type
           rdf:resource="http://purl.org/dc/dcmitype/StillImage" />
      </cc:Work>
    </rdf:RDF>
  </metadata>
  <defs
     id="defs8" />
  <sodipodi:namedview
     pagecolor="#ffffff"
     bordercolor="#666666"
     borderopacity="1"
     objecttolerance="10"
     gridtolerance="10"
     guidetolerance="10"
     inkscape:pageopacity="0"
     inkscape:pageshadow="2"
     inkscape:window-width="1920"
     inkscape:window-height="1016"
     id="namedview6"
     showgrid="false"
     inkscape:zoom="14.75"
     inkscape:cx="8"
     inkscape:cy="8"
     inkscape:window-x="0"
     inkscape:window-y="27"
     inkscape:window-maximized="1"
     inkscape:current-layer="svg4" />
  <path
     d="M 8,0 A 8,8 0 1 0 8,16 8,8 0 0 0 8,0 Z M 5.7142857,4.5714286 c 0.6388572,0 1.1782857,0.5405714 1.1782857,1.1782857 V 6.8571429 C 6.8925714,7.4948571 6.3531429,8 5.7154286,8 5.0754286,8 4.5725714,7.4948571 4.5725714,6.8571429 V 5.7497143 C 4.5714286,5.112 5.0742857,4.5714286 5.7142857,4.5714286 Z m 4.5714283,0 c 0.638857,0 1.142857,0.5405714 1.142857,1.1782857 V 6.8571429 C 11.428571,7.4948571 10.924571,8 10.285714,8 9.648,8 9.142857,7.4948571 9.142857,6.8571429 V 5.7497143 C 9.142857,5.112 9.648,4.5714286 10.285714,4.5714286 Z M 2.2857143,9.2228571 C 3.4251429,9.9508571 6.8765714,10.270857 8,10.270857 c 1.124571,0 4.348571,0.05829 5.714286,-1.0479999 v 0.5714286 c 0,0.7771433 -1.993143,1.6045713 -5.714286,1.6045713 -3.7211429,0 -5.7142857,-0.996571 -5.7142857,-1.6045713 z"
     id="path2"
     style="fill:#fdc92b;fill-opacity:1;stroke-width:1.14285719"
     inkscape:connector-curvature="0" />
  <path
     style="opacity:0.3;fill:#fffffe;fill-opacity:1;stroke-width:1.14285719"
     d="M 8,0 A 8,8 0 0 0 0.0133929,8.3482143 8,8 0 0 1 8,0.57142857 8,8 0 0 1 15.986607,8.2232143 8,8 0 0 0 8,0 Z M 4.5736607,6.8571429 v 0.5714285 c 0,0.6377143 0.5028571,1.1428572 1.1428571,1.1428572 0.6377143,0 1.1763393,-0.5051429 1.1763393,-1.1428572 V 6.8571429 C 6.8928571,7.4948571 6.3542321,8 5.7165178,8 5.0765178,8 4.5736607,7.4948571 4.5736607,6.8571429 Z m 4.5691963,0 v 0.5714285 c 0,0.6377143 0.505143,1.1428572 1.142857,1.1428572 0.638857,0 1.142857,-0.5051429 1.142857,-1.1428572 V 6.8571429 C 11.428571,7.4948571 10.924571,8 10.285714,8 9.648,8 9.142857,7.4948571 9.142857,6.8571429 Z m -6.8571427,2.9375 v 0.5714281 c 0,0.608 1.9931428,1.604911 5.7142857,1.604911 3.721143,0 5.714286,-0.827768 5.714286,-1.604911 V 9.7946429 c 0,0.7771421 -1.993143,1.6049101 -5.714286,1.6049101 -3.7211429,0 -5.7142857,-0.996911 -5.7142857,-1.6049101 z"
     id="path829"
     inkscape:connector-curvature="0" />
  <path
     style="opacity:0.2;fill:#000000;fill-opacity:1;stroke-width:1.14285719"
     d="m 5.7142857,4 c -0.64,0 -1.1417679,0.5408571 -1.140625,1.1785714 V 5.75 c -0.00114,-0.6377143 0.500625,-1.1785714 1.140625,-1.1785714 0.6388572,0 1.1785714,0.5408571 1.1785714,1.1785714 V 5.1785714 C 6.8928571,4.5408571 6.3531429,4 5.7142857,4 Z M 10.285714,4 C 9.648,4 9.142857,4.5408571 9.142857,5.1785714 V 5.75 c 0,-0.6377143 0.505143,-1.1785714 1.142857,-1.1785714 0.638857,0 1.142857,0.5408571 1.142857,1.1785714 V 5.1785714 C 11.428571,4.5408571 10.924571,4 10.285714,4 Z m 5.700893,3.6517857 A 8,8 0 0 1 8,15.428571 8,8 0 0 1 0.0133929,7.7767857 8,8 0 0 0 8,16 8,8 0 0 0 15.986607,7.6517857 Z m -13.7008927,1 V 9.2232143 C 3.4251429,9.9512143 6.8765714,10.270089 8,10.270089 c 1.124571,0 4.348571,0.05941 5.714286,-1.0468747 V 8.6517857 C 12.348571,9.7580714 9.124571,9.6986607 8,9.6986607 c -1.1234286,0 -4.5748571,-0.318875 -5.7142857,-1.046875 z"
     id="path834"
     inkscape:connector-curvature="0" />
</svg>
